svg/logo/codepen_line.svg

<?xml version="1.0" encoding="UTF-8"?>
<svg width="24px" height="24px" viewBox="0 0 24 24" version="1.1" xmlns="http://www.w3.org/2000/svg" xmlns:xlink="http://www.w3.org/1999/xlink">
    <title>codepen_line</title>
    <g id="Icon" stroke="none" stroke-width="1" fill="none" fill-rule="evenodd">
        <g id="Logo" transform="translate(-240.000000, -192.000000)">
            <g id="codepen_line" transform="translate(240.000000, 192.000000)">
                <path d="M24,0 L24,24 L0,24 L0,0 L24,0 Z M12.5935,23.2578 L12.5819,23.2595 L12.5109,23.295 L12.4919,23.2987 L12.4767,23.295 L12.4057,23.2595 C12.3958,23.2564 12.387,23.259 12.3821,23.2649 L12.378,23.2758 L12.3609,23.7031 L12.3659,23.7235 L12.3769,23.7357 L12.4805,23.8097 L12.4953,23.8136 L12.5071,23.8097 L12.6107,23.7357 L12.6233,23.7197 L12.6267,23.7031 L12.6096,23.2758 C12.6076,23.2657 12.601,23.2593 12.5935,23.2578 Z M12.8584,23.1453 L12.8445,23.1473 L12.6598,23.2397 L12.6499,23.2499 L12.6472,23.2611 L12.6651,23.6906 L12.6699,23.7034 L12.6784,23.7105 L12.8793,23.8032 C12.8914,23.8069 12.9022,23.803 12.9078,23.7952 L12.9118,23.7812 L12.8777,23.1665 C12.8753,23.1546 12.8674,23.147 12.8584,23.1453 Z M12.143,23.1473 C12.1332,23.1424 12.1222,23.1453 12.1156,23.1526 L12.1099,23.1665 L12.0758,23.7812 C12.0751,23.7927 12.0828,23.8019 12.0926,23.8046 L12.1083,23.8032 L12.3092,23.7105 L12.3186,23.7024 L12.3225,23.6906 L12.3404,23.2611 L12.3372,23.2485 L12.3278,23.2397 L12.143,23.1473 Z" id="MingCute" fill-rule="nonzero"></path>
                <path d="M13,3.22767 L20.998,7.84532 C21.6168,8.20258 21.998,8.86284 21.998,9.57737 L21.998,14.4226 C21.998,15.1371 21.6168,15.7974 20.998,16.1547 L13,20.7723 C12.3812,21.1296 11.6188,21.1296 11,20.7723 L3.00195,16.1547 C2.38315,15.7974 2.00195,15.1371 2.00195,14.4226 L2.00195,9.57737 C2.00195,8.86284 2.38315,8.20258 3.00195,7.84532 L11,3.22767 C11.6188,2.8704 12.3812,2.8704 13,3.22767 Z M8.19811,13.1547 L5.00199,15 L11,18.4629 L11,14.7724 L8.19811,13.1547 Z M15.8018,13.1547 L13,14.7723 L13,18.4629 L18.9979,15 L15.8018,13.1547 Z M4.00195,10.7321 L4.00195,13.268 L6.19811,12 L4.00195,10.7321 Z M19.998,10.7321 L17.8018,12 L19.998,13.2679 L19.998,10.7321 Z M12,10.9597 L10.1981,12 L12,13.0403 L13.8018,12 L12,10.9597 Z M11,5.53704 L5.00197,9.00001 L8.19811,10.8453 L11,9.22763 L11,5.53704 Z M13,5.53709 L13,9.22767 L15.8018,10.8453 L18.9979,9.00001 L13,5.53709 Z" id="形状" fill="#09244B"></path>
            </g>
        </g>
    </g>
</svg>

<svg xmlns="http://www.w3.org/2000/svg" width="24" height="24"><g fill="none" fill-rule="evenodd"><path d="M24 0v24H0V0h24ZM12.594 23.258l-.012.002-.071.035-.02.004-.014-.004-.071-.036c-.01-.003-.019 0-.024.006l-.004.01-.017.428.005.02.01.013.104.074.015.004.012-.004.104-.074.012-.016.004-.017-.017-.427c-.002-.01-.009-.017-.016-.018Zm.264-.113-.014.002-.184.093-.01.01-.003.011.018.43.005.012.008.008.201.092c.012.004.023 0 .029-.008l.004-.014-.034-.614c-.003-.012-.01-.02-.02-.022Zm-.715.002a.023.023 0 0 0-.027.006l-.006.014-.034.614c0 .012.007.02.017.024l.015-.002.201-.093.01-.008.003-.011.018-.43-.003-.012-.01-.01-.184-.092Z"/><path fill="#09244B" d="m13 3.228 7.998 4.617a2 2 0 0 1 1 1.732v4.846a2 2 0 0 1-1 1.732L13 20.772a2 2 0 0 1-2 0l-7.998-4.617a2 2 0 0 1-1-1.732V9.577a2 2 0 0 1 1-1.732L11 3.228a2 2 0 0 1 2 0Zm-4.802 9.927L5.002 15 11 18.463v-3.69l-2.802-1.618Zm7.604 0L13 14.772v3.69L18.998 15l-3.196-1.845Zm-11.8-2.423v2.536L6.198 12l-2.196-1.268Zm15.996 0L17.802 12l2.196 1.268v-2.536ZM12 10.96 10.198 12 12 13.04 13.802 12 12 10.96Zm-1-5.423L5.002 9l3.196 1.845L11 9.228V5.537Zm2 0v3.69l2.802 1.618L18.998 9 13 5.537Z"/></g></svg>
